apps/sim/public/logo/sim-landing.svg

<svg fill="none" height="22" viewBox="0 0 71 22" width="71" xmlns="http://www.w3.org/2000/svg" xmlns:xlink="http://www.w3.org/1999/xlink"><linearGradient id="a" gradientUnits="userSpaceOnUse" x1="171.406" x2="245.831" y1="171.18" y2="245.428"><stop offset="0"/><stop offset="1" stop-opacity="0"/></linearGradient><g transform="scale(.07483)"><path clip-rule="evenodd" d="m142.793 124.175c0 4.75-1.88 9.312-5.216 12.671l-.478.481c-3.334 3.369-7.863 5.252-12.58 5.252h-106.7127c-9.82776 0-17.8063 8.026-17.8063 17.924v115.407c0 9.898 7.97854 17.924 17.8063 17.924h114.5767c9.828 0 17.796-8.026 17.796-17.924v-108.052c0-4.405 1.735-8.632 4.83-11.749 3.086-3.108 7.283-4.856 11.657-4.856h108.5c9.828 0 17.796-8.024 17.796-17.923v-115.4069c0-9.89798-7.968-17.9231-17.796-17.9231h-114.578c-9.827 0-17.795 8.02512-17.795 17.9231zm34.771-99.6079h80.617c5.744 0 10.389 4.6874 10.389 10.463v81.1939c0 5.774-4.645 10.463-10.389 10.463h-80.617c-5.734 0-10.389-4.689-10.389-10.463v-81.1939c0-5.7756 4.655-10.463 10.389-10.463z" fill="#33c482" fill-rule="evenodd"/><path d="m275.293 171.578h-85.187c-10.327 0-18.7 8.432-18.7 18.834v84.75c0 10.402 8.373 18.834 18.7 18.834h85.187c10.328 0 18.701-8.432 18.701-18.834v-84.75c0-10.402-8.373-18.834-18.701-18.834z" fill="#33c482"/><path d="m275.293 171.18h-85.187c-10.327 0-18.7 8.432-18.7 18.834v84.749c0 10.402 8.373 18.833 18.7 18.833h85.187c10.328 0 18.701-8.431 18.701-18.833v-84.749c0-10.402-8.373-18.834-18.701-18.834z" fill="url(#a)" fill-opacity=".2"/></g><g fill="#f6f6f0"><path d="m31.5718 15.845h2.5865c0 .7141.2586 1.2835.7759 1.7081.5173.4053 1.2166.608 2.0979.608.958 0 1.6956-.1834 2.2129-.5501.5173-.386.776-.8975.776-1.5344 0-.4632-.1437-.8492-.4311-1.158-.2682-.3088-.7664-.5597-1.4944-.7527l-2.4716-.579c-1.2453-.3088-2.1745-.7817-2.7876-1.4186-.594-.6369-.8909-1.4765-.8909-2.51873 0-.86852.2203-1.62124.661-2.25815.4598-.63692 1.0825-1.12908 1.868-1.47648.8047-.34741 1.7243-.52112 2.7589-.52112s1.9255.18336 2.6727.55007c.7664.3667 1.3603.87817 1.7818 1.53438.4407.65622.6706 1.43788.6898 2.345h-2.5865c-.0192-.73341-.2587-1.30278-.7185-1.70809-.4598-.4053-1.1017-.60796-1.9255-.60796-.843 0-1.4944.18336-1.9542.55006-.4599.36671-.6898.86852-.6898 1.50544 0 .94568.6898 1.59228 2.0692 1.93968l2.4716.608c1.1878.2702 2.0787.7141 2.6727 1.3317.5939.5983.8909 1.4186.8909 2.4608 0 .8878-.2395 1.6695-.7185 2.345-.479.6562-1.14 1.1677-1.983 1.5344-.8238.3474-1.8009.5211-2.9313.5211-1.6477 0-2.9601-.4053-3.9372-1.2159-.9772-.8106-1.4657-1.8915-1.4657-3.2425z"/><path d="m44.5096 19.956v-14.15687c1.0772.39383 1.5521.39383 2.7014 0v14.15687zm1.322-15.09268c-.479 0-.9005-.1737-1.2645-.52111-.3449-.36671-.5173-.79132-.5173-1.27383 0-.50181.1724-.92642.5173-1.27383.364-.34741.7855-.52111 1.2645-.52111.4981 0 .9196.1737 1.2645.52111s.5173.77202.5173 1.27383c0 .48251-.1724.90712-.5173 1.27383-.3449.34741-.7664.52111-1.2645.52111z"/><path d="m51.976 19.956h-2.7014v-14.15687h2.4141v2.38865c.2873-.79131.843-1.46223 1.6093-1.98334.7855-.54041 1.7339-.81062 2.8452-.81062 1.2453 0 2.2799.33776 3.1038 1.01328.8238.67551 1.3603 1.57298 1.6093 2.69241h-.4885c.1916-1.11943.7184-2.0169 1.5806-2.69241.8622-.67552 1.9255-1.01328 3.19-1.01328 1.6094 0 2.8739.47286 3.7935 1.41858.9197.94573 1.3795 2.23886 1.3795 3.8794v9.2642h-2.644v-8.5983c0-1.1195-.2874-1.97834-.8621-2.57665-.5557-.61761-1.3125-.92642-2.2704-.92642-.6706 0-1.2645.1544-1.7818.46321-.4982.28951-.8909.71412-1.1783 1.27383-.2874.55973-.4311 1.21593-.4311 1.96863v8.3957h-2.6727v-8.6273c0-1.1194-.2778-1.96864-.8334-2.54765-.5556-.59831-1.3124-.89747-2.2704-.89747-.6706 0-1.2645.1544-1.7818.46321-.4981.28951-.8909.71412-1.1783 1.27383-.2874.54038-.4311 1.18698-.4311 1.93968z"/></g></svg>

<svg width="71" height="22" viewBox="0 0 71 22" fill="none" xmlns="http://www.w3.org/2000/svg">
<defs>
<linearGradient id="paint0_linear_3547_13413" x1="171.406" y1="171.18" x2="245.831" y2="245.428" gradientUnits="userSpaceOnUse">
<stop/>
<stop offset="1" stop-opacity="0"/>
</linearGradient>
</defs>
<g transform="scale(0.07483)">
<path fill-rule="evenodd" clip-rule="evenodd" d="M142.793 124.175C142.793 128.925 140.913 133.487 137.577 136.846L137.099 137.327C133.765 140.696 129.236 142.579 124.519 142.579H17.8063C7.97854 142.579 0 150.605 0 160.503V275.91C0 285.808 7.97854 293.834 17.8063 293.834H132.383C142.211 293.834 150.179 285.808 150.179 275.91V167.858C150.179 163.453 151.914 159.226 155.009 156.109C158.095 153.001 162.292 151.253 166.666 151.253H275.166C284.994 151.253 292.962 143.229 292.962 133.33V17.9231C292.962 8.02512 284.994 0 275.166 0H160.588C150.761 0 142.793 8.02512 142.793 17.9231V124.175ZM177.564 24.5671H258.181C263.925 24.5671 268.57 29.2545 268.57 35.0301V116.224C268.57 121.998 263.925 126.687 258.181 126.687H177.564C171.83 126.687 167.175 121.998 167.175 116.224V35.0301C167.175 29.2545 171.83 24.5671 177.564 24.5671Z" fill="#33C482"/>
<path d="M275.293 171.578H190.106C179.779 171.578 171.406 180.01 171.406 190.412V275.162C171.406 285.564 179.779 293.996 190.106 293.996H275.293C285.621 293.996 293.994 285.564 293.994 275.162V190.412C293.994 180.01 285.621 171.578 275.293 171.578Z" fill="#33C482"/>
<path d="M275.293 171.18H190.106C179.779 171.18 171.406 179.612 171.406 190.014V274.763C171.406 285.165 179.779 293.596 190.106 293.596H275.293C285.621 293.596 293.994 285.165 293.994 274.763V190.014C293.994 179.612 285.621 171.18 275.293 171.18Z" fill="url(#paint0_linear_3547_13413)" fill-opacity="0.2"/>
</g>
<path d="M31.5718 15.845H34.1583C34.1583 16.5591 34.4169 17.1285 34.9342 17.5531C35.4515 17.9584 36.1508 18.1611 37.0321 18.1611C37.9901 18.1611 38.7277 17.9777 39.245 17.611C39.7623 17.225 40.021 16.7135 40.021 16.0766C40.021 15.6134 39.8773 15.2274 39.5899 14.9186C39.3217 14.6098 38.8235 14.3589 38.0955 14.1659L35.6239 13.5869C34.3786 13.2781 33.4494 12.8052 32.8363 12.1683C32.2423 11.5314 31.9454 10.6918 31.9454 9.64957C31.9454 8.78105 32.1657 8.02833 32.6064 7.39142C33.0662 6.7545 33.6889 6.26234 34.4744 5.91494C35.2791 5.56753 36.1987 5.39382 37.2333 5.39382C38.2679 5.39382 39.1588 5.57718 39.906 5.94389C40.6724 6.31059 41.2663 6.82206 41.6878 7.47827C42.1285 8.13449 42.3584 8.91615 42.3776 9.82327H39.7911C39.7719 9.08986 39.5324 8.52049 39.0726 8.11518C38.6128 7.70988 37.9709 7.50722 37.1471 7.50722C36.3041 7.50722 35.6527 7.69058 35.1929 8.05728C34.733 8.42399 34.5031 8.9258 34.5031 9.56272C34.5031 10.5084 35.1929 11.155 36.5723 11.5024L39.0439 12.1104C40.2317 12.3806 41.1226 12.8245 41.7166 13.4421C42.3105 14.0404 42.6075 14.8607 42.6075 15.9029C42.6075 16.7907 42.368 17.5724 41.889 18.2479C41.41 18.9041 40.749 19.4156 39.906 19.7823C39.0822 20.1297 38.1051 20.3034 36.9747 20.3034C35.327 20.3034 34.0146 19.8981 33.0375 19.0875C32.0603 18.2769 31.5718 17.196 31.5718 15.845Z" fill="#F6F6F0"/>
<path d="M44.5096 19.956V5.79913C45.5868 6.19296 46.0617 6.19296 47.211 5.79913V19.956H44.5096ZM45.8316 4.86332C45.3526 4.86332 44.9311 4.68962 44.5671 4.34221C44.2222 3.9755 44.0498 3.55089 44.0498 3.06838C44.0498 2.56657 44.2222 2.14196 44.5671 1.79455C44.9311 1.44714 45.3526 1.27344 45.8316 1.27344C46.3297 1.27344 46.7512 1.44714 47.0961 1.79455C47.441 2.14196 47.6134 2.56657 47.6134 3.06838C47.6134 3.55089 47.441 3.9755 47.0961 4.34221C46.7512 4.68962 46.3297 4.86332 45.8316 4.86332Z" fill="#F6F6F0"/>
<path d="M51.976 19.956H49.2746V5.79913H51.6887V8.18778C51.976 7.39647 52.5317 6.72555 53.298 6.20444C54.0835 5.66403 55.0319 5.39382 56.1432 5.39382C57.3885 5.39382 58.4231 5.73158 59.247 6.4071C60.0708 7.08261 60.6073 7.98008 60.8563 9.09951H60.3678C60.5594 7.98008 61.0862 7.08261 61.9484 6.4071C62.8106 5.73158 63.8739 5.39382 65.1384 5.39382C66.7478 5.39382 68.0123 5.86668 68.9319 6.8124C69.8516 7.75813 70.3114 9.05126 70.3114 10.6918V19.956H67.6674V11.3577C67.6674 10.2382 67.38 9.37936 66.8053 8.78105C66.2496 8.16344 65.4928 7.85463 64.5349 7.85463C63.8643 7.85463 63.2704 8.00903 62.7531 8.31784C62.2549 8.60735 61.8622 9.03196 61.5748 9.59167C61.2874 10.1514 61.1437 10.8076 61.1437 11.5603V19.956H58.471V11.3287C58.471 10.2093 58.1932 9.36006 57.6376 8.78105C57.082 8.18274 56.3252 7.88358 55.3672 7.88358C54.6966 7.88358 54.1027 8.03798 53.5854 8.34679C53.0873 8.6363 52.6945 9.06091 52.4071 9.62062C52.1197 10.161 51.976 10.8076 51.976 11.5603V19.956Z" fill="#F6F6F0"/>
</svg>
